X: 14
T:Amanda
M:2/4
L:1/16
C:Roger Talroth
S:Vsen
R:Polska
K:F
B4|:A3^F D2^F2|A2c2 BAG^F|GABc d2B2|1A3^F D2^F2|A2BA G2^F2|D4B4:|2A2^F2
D4
|
^F2E2 C2DE|D4||
|B2c2|:d2de d2c2|B2cd e2ef|e2d2 c2de|^f2ef g2^fg|1a2ga b2bc'
|b2ag a4:|2b2b2 aba^f|g4||
